src/assets/img/icons/common/google.svg

<?xml version="1.0" encoding="UTF-8"?>
<svg width="36px" height="36px" viewBox="0 0 36 36" version="1.1" xmlns="http://www.w3.org/2000/svg" xmlns:xlink="http://www.w3.org/1999/xlink">
    <!-- Generator: Sketch 43.2 (39069) - http://www.bohemiancoding.com/sketch -->
    <title>UI/icons/color/google</title>
    <desc>Created with Sketch.</desc>
    <defs/>
    <g id="Symbols" stroke="none" stroke-width="1" fill="none" fill-rule="evenodd">
        <g id="UI/icons/color/google">
            <g id="Group" transform="translate(2.000000, 2.000000)">
                <path d="M32.4365525,16.6024012 C32.4365525,15.4515967 32.3313665,14.344128 32.1357206,13.2820585 L16.5492615,13.2820585 L16.5492615,19.5616128 L25.4557094,19.5616128 C25.0721312,21.5908257 23.9059692,23.3098098 22.1535707,24.4613022 L22.1535707,28.5341733 L27.5019274,28.5341733 C30.631561,25.7077204 32.4365525,21.5461142 32.4365525,16.6024012 L32.4365525,16.6024012 Z" id="Shape" fill="#4285F4"/>
                <path d="M16.5492615,32.4674071 C21.0175621,32.4674071 24.7635856,31.0139403 27.5019274,28.5341733 L22.1535707,24.4613022 C20.6718508,25.4353244 18.7756982,26.0110706 16.5492615,26.0110706 C12.2387399,26.0110706 8.59088994,23.1557272 7.2893887,19.3181072 L1.76011213,19.3181072 L1.76011213,23.5244249 C4.48302664,28.8299569 10.0796222,32.4674071 16.5492615,32.4674071 L16.5492615,32.4674071 Z" id="Shape" fill="#34A853"/>
                <path d="M7.2893887,19.3181072 C6.95840347,18.344085 6.77047118,17.3033395 6.77047118,16.2337035 C6.77047118,15.1640676 6.95840347,14.1233221 7.2893887,13.1492999 L7.2893887,8.94298219 L1.76011213,8.94298219 C0.639530783,11.1345322 0,13.6142992 0,16.2337035 C0,18.8531079 0.639530783,21.3328749 1.76011213,23.5244249 L7.2893887,19.3181072 L7.2893887,19.3181072 Z" id="Shape" fill="#FBBC05"/>
                <path d="M16.5492615,6.4563365 C18.9790577,6.4563365 21.160615,7.27558824 22.8758478,8.88382548 L27.6225407,4.22764161 C24.755872,1.60892511 21.0098485,0 16.5492615,0 C10.0803235,0 4.48302664,3.63813805 1.76011213,8.94298219 L7.2893887,13.1492999 C8.59088994,9.31236774 12.2394411,6.4563365 16.5492615,6.4563365 Z" id="Shape" fill="#EA4335"/>
            </g>
        </g>
    </g>
</svg>

<?xml version="1.0" encoding="UTF-8" standalone="no"?>
<svg
   width="25"
   height="25"
   viewBox="0 0 25 25"
   version="1.1"
   id="svg18"
   sodipodi:docname="google.svg"
   inkscape:version="1.0.1 (0767f8302a, 2020-10-17)">
  <metadata
     id="metadata22">
    <rdf:RDF>
      <cc:Work
         rdf:about="">
        <dc:format>image/svg+xml</dc:format>
        <dc:type
           rdf:resource="http://purl.org/dc/dcmitype/StillImage" />
        <dc:title>UI/icons/color/google</dc:title>
      </cc:Work>
    </rdf:RDF>
  </metadata>
  <sodipodi:namedview
     pagecolor="#ffffff"
     bordercolor="#666666"
     borderopacity="1"
     objecttolerance="10"
     gridtolerance="10"
     guidetolerance="10"
     inkscape:pageopacity="0"
     inkscape:pageshadow="2"
     inkscape:window-width="640"
     inkscape:window-height="480"
     id="namedview20"
     showgrid="false"
     inkscape:zoom="13.031163"
     inkscape:cx="17.808152"
     inkscape:cy="18"
     inkscape:current-layer="svg18" />
  <g
     id="Symbols"
     stroke="none"
     stroke-width="1"
     fill="none"
     fill-rule="evenodd"
     transform="matrix(0.49892229,0,0,0.49892229,3.410496,3.4027989)">
    <g
       id="UI/icons/color/google">
      <g
         id="Group"
         transform="translate(2,2)">
        <path
           d="m 32.436552,16.602401 c 0,-1.150804 -0.105185,-2.258273 -0.300831,-3.320342 h -15.58646 v 6.279554 h 8.906448 c -0.383578,2.029213 -1.54974,3.748197 -3.302138,4.899689 v 4.072871 h 5.348356 c 3.129634,-2.826453 4.934625,-6.988059 4.934625,-11.931772 z"
           id="Shape"
           fill="#4285f4" />
        <path
           d="m 16.549261,32.467407 c 4.468301,0 8.214325,-1.453467 10.952666,-3.933234 l -5.348356,-4.072871 c -1.48172,0.974022 -3.377873,1.549769 -5.60431,1.549769 -4.310521,0 -7.9583711,-2.855344 -9.2598723,-6.692964 H 1.7601121 v 4.206318 c 2.7229145,5.305532 8.3195099,8.942982 14.7891489,8.942982 z"
           id="path9"
           fill="#34a853" />
        <path
           d="M 7.2893887,19.318107 C 6.9584035,18.344085 6.7704712,17.303339 6.7704712,16.233703 c 0,-1.069635 0.1879323,-2.110381 0.5189175,-3.084403 V 8.9429822 H 1.7601121 C 0.63953078,11.134532 0,13.614299 0,16.233703 c 0,2.619405 0.63953078,5.099172 1.7601121,7.290722 z"
           id="path11"
           fill="#fbbc05" />
        <path
           d="m 16.549261,6.4563365 c 2.429797,0 4.611354,0.8192517 6.326587,2.427489 L 27.622541,4.2276416 C 24.755872,1.6089251 21.009848,0 16.549261,0 10.080324,0 4.4830266,3.638138 1.7601121,8.9429822 L 7.2893887,13.1493 C 8.5908899,9.3123677 12.239441,6.4563365 16.549261,6.4563365 Z"
           id="path13"
           fill="#ea4335" />
      </g>
    </g>
  </g>
</svg>
